X: 1703
T: Antikythera
R: reel
M: 4/4
K: Edorian
|:BBEB BAGF|DEGB dBAG|FFEF BFAF|EFAc BBAB|AFED E2FA|
B~e3 dBBA|BAFD DEFA|BBAB d2ec|1 BEEE AAFA:|2 B~E3 ecBc||
|:A2cA eAcA|BAFE FAFE|A2cA eAcA|Beed BGED|A2cA dAeA|gfed efed
cAAe AAcA|BAGE D2FA|dgfB BABB|1 dcAF DEEG:|2 dcAF E2FA||

